dist/svg/static/rotate-image-right-large.svg

<svg xmlns="http://www.w3.org/2000/svg" width="48" height="48" viewBox="0 0 48 48"><g fill="none" stroke="currentColor"><path d="M21.5 4.5l5 5-5 5"/><path d="M5.5 28v-1.4c0-4.5 1.7-9 5-12.4 3.2-3.2 7.6-4.7 11.9-4.7h4.1M40.5 22.5h-24v16c0 1.7 1.3 3 3 3h24v-16c0-1.7-1.3-3-3-3z"/></g></svg>

<?xml version="1.0" encoding="UTF-8" standalone="no"?>
<svg width="48px" height="48px" viewBox="0 0 48 48" version="1.1" xmlns="http://www.w3.org/2000/svg" xmlns:xlink="http://www.w3.org/1999/xlink">
    <!-- Generator: sketchtool 46.2 (44496) - http://www.bohemiancoding.com/sketch -->
    <title>rotate-image-right-large</title>
    <desc>Created with sketchtool.</desc>
    <defs></defs>
    <g id="icons-published" stroke="none" stroke-width="1" fill="none" fill-rule="evenodd">
        <g id="briefing" transform="translate(-3456.000000, -1434.000000)"></g>
        <g id="rotate-image-right-large" stroke="#000000">
            <polyline id="Shape" points="21.5 4.5 26.5 9.5 21.5 14.5"></polyline>
            <path d="M40.5,22.5 L16.5,22.5 L16.5,38.5 C16.5,40.2 17.8,41.5 19.5,41.5 L43.5,41.5 L43.5,25.5 C43.5,23.8 42.2,22.5 40.5,22.5 Z" id="Shape"></path>
            <path d="M5.5,28 L5.5,26.6 C5.5,22.1 7.2,17.6 10.5,14.2 C13.7,11 18.1,9.5 22.4,9.5 L26.5,9.5" id="Path"></path>
        </g>
    </g>
</svg>
